la/dog-solid.svg

<svg xmlns="http://www.w3.org/2000/svg" viewBox="0 0 32 32" height="1em" width="1em">
  <path d="M 20.3125 3 L 20.0625 3.65625 L 17.3125 11 L 9.625 11 C 8.710938 11 7.84375 11.257813 7.125 11.71875 L 4.71875 9.28125 L 3.28125 10.71875 L 5.71875 13.125 C 5.257813 13.84375 5 14.710938 5 15.625 C 5 16.128906 5.085938 16.644531 5.25 17.125 L 5.96875 19.21875 L 5.03125 22.75 L 5 22.875 L 5 28 L 7 28 L 7 23.125 L 7.96875 19.46875 L 8.03125 19.15625 L 7.9375 18.875 L 7.125 16.46875 C 7.035156 16.199219 7 15.910156 7 15.625 C 7 14.15625 8.15625 13 9.625 13 L 17.65625 13 L 21 16.28125 L 21 13.46875 L 19.1875 11.6875 L 21.25 6.15625 L 21.5 6.53125 L 21.78125 7 L 23.65625 7 L 26.71875 9.3125 L 25.875 11 L 22 11 L 22 16.875 L 21.0625 19.6875 L 21 19.84375 L 21 23.125 L 22 27.125 L 22 28 L 24 28 L 24 26.875 L 23 22.875 L 23 20.125 L 23.9375 17.3125 L 24 17.15625 L 24 13 L 27.125 13 L 29.28125 8.6875 L 28.59375 8.1875 L 24.34375 5 L 22.90625 5 L 21.9375 3.46875 L 21.65625 3 Z M 10.21875 18 L 9 22.875 L 9 28 L 11 28 L 11 23.125 L 11.78125 20 L 12.71875 20 C 13.070313 20.234375 14.3125 21 16 21 L 17 21 L 17 23.125 L 18 27.125 L 18 28 L 20 28 L 20 26.875 L 19 22.875 L 19 19 L 16 19 C 14.9375 19 13.5625 18.15625 13.5625 18.15625 L 13.3125 18 Z"/>
</svg>

<svg xmlns="http://www.w3.org/2000/svg" viewBox="0 0 32 32" height="1em" width="1em">
  <path d="m20.313 3-.25.656L17.313 11H9.625a4.63 4.63 0 0 0-2.5.719L4.719 9.28 3.28 10.72l2.438 2.406a4.684 4.684 0 0 0-.469 4l.719 2.094-.938 3.531-.031.125V28h2v-4.875l.969-3.656.062-.313-.094-.281-.812-2.406A2.677 2.677 0 0 1 7 15.625 2.601 2.601 0 0 1 9.625 13h8.031L21 16.281V13.47l-1.813-1.781 2.063-5.532.25.375.281.469h1.875l3.063 2.313L25.875 11H22v5.875l-.938 2.813-.062.156v3.281l1 4V28h2v-1.125l-1-4v-2.75l.938-2.813.062-.156V13h3.125l2.156-4.313-.687-.5L24.344 5h-1.438l-.968-1.531L21.655 3ZM10.219 18 9 22.875V28h2v-4.875L11.781 20h.938c.351.234 1.594 1 3.281 1h1v2.125l1 4V28h2v-1.125l-1-4V19h-3c-1.063 0-2.438-.844-2.438-.844l-.25-.156Z"/>
</svg>
